dist/assets/img/svg/banner-logo.svg

<svg width="363" height="435" fill="none" xmlns="http://www.w3.org/2000/svg"><g opacity=".2"><g filter="url(#filter0_b_25_571)"><path d="M247.5 465C110.81 465 0 354.191 0 217.5c0-32.014 6.078-62.608 17.144-90.691l48.265 28.087C58.662 174.523 55 195.584 55 217.5 55 323.815 141.185 410 247.5 410c63.084 0 119.08-30.344 154.189-77.233l44.347 32.542C400.914 425.817 328.783 465 247.5 465z" fill="#fff" fill-opacity=".7"/><path d="M490.764 171.667A248.786 248.786 0 01495 217.5c0 7.948-.375 15.808-1.107 23.564-148.011-45.512-224.091-27.249-356.393 26.853 113.909-84.548 183.33-121.1 353.264-96.25z" fill="#fff" fill-opacity=".7"/><path d="M488.34 274.772a245.837 245.837 0 01-23.375 61.001C357.761 277.404 310.117 271.91 165 267.917c147.084-35.507 221.947-43.636 323.34 6.855z" fill="#fff" fill-opacity=".7"/><path d="M247.5 464.5c-136.414 0-247-110.586-247-247 0-31.744 5.988-62.089 16.896-89.966l47.407 27.588C58.123 174.69 54.5 195.672 54.5 217.5c0 106.591 86.409 193 193 193 63.07 0 119.074-30.253 154.292-77.038l43.541 31.951C400.283 425.571 328.438 464.5 247.5 464.5zm45.772-285.256c52.667-16.547 112.331-19.493 197.067-7.134a248.455 248.455 0 014.161 45.39c0 7.723-.354 15.363-1.048 22.905-73.758-22.624-129.697-29.4-183.698-23.767-53.127 5.542-104.344 23.093-168.763 49.314 55.477-41.034 100.522-70.445 152.281-86.708zm50.534 60.351c49.574-.158 93.471 10.361 143.956 35.448a245.34 245.34 0 01-22.997 60.052c-53.398-29.046-92.065-44.973-135.462-54.13-42.746-9.02-90.06-11.467-160.526-13.444 71.727-17.232 126.146-27.77 175.029-27.926z" stroke="#fff"/></g><g filter="url(#filter1_b_25_571)"><path d="M28.691 101.727C70.236 23.372 152.635-30 247.5-30c107.763 0 199.44 68.872 233.417 165-187.363-1.699-254.634 39.817-361.75 128.333C184.235 157.458 235.456 111.516 382.222 80c-34.72-34.023-82.271-55-134.722-55-74.476 0-139.074 42.294-171.085 104.174L28.69 101.727z" fill="#fff" fill-opacity=".7"/><path d="M247.5 24.5c-74.484 0-139.112 42.194-171.289 103.98L29.36 101.534C70.893 23.57 153-29.5 247.5-29.5c107.293 0 198.609 68.41 232.707 163.994-93.327-.793-156.869 9.168-210.442 30.377-52.926 20.953-96.084 52.871-148.589 96.156 31.886-51.58 60.608-88.704 99.176-116.841 39.205-28.601 88.626-47.946 161.975-63.697l.909-.195-.664-.651C347.763 45.533 300.087 24.5 247.5 24.5z" stroke="#fff"/></g></g><defs><filter id="filter0_b_25_571" x="-20" y="106.809" width="535" height="378.192" filterUnits="userSpaceOnUse" color-interpolation-filters="sRGB"><feFlood flood-opacity="0" result="BackgroundImageFix"/><feGaussianBlur in="BackgroundImageFix" stdDeviation="10"/><feComposite in2="SourceAlpha" operator="in" result="effect1_backgroundBlur_25_571"/><feBlend in="SourceGraphic" in2="effect1_backgroundBlur_25_571" result="shape"/></filter><filter id="filter1_b_25_571" x="8.691" y="-50" width="492.226" height="333.333" filterUnits="userSpaceOnUse" color-interpolation-filters="sRGB"><feFlood flood-opacity="0" result="BackgroundImageFix"/><feGaussianBlur in="BackgroundImageFix" stdDeviation="10"/><feComposite in2="SourceAlpha" operator="in" result="effect1_backgroundBlur_25_571"/><feBlend in="SourceGraphic" in2="effect1_backgroundBlur_25_571" result="shape"/></filter></defs></svg>GB">
<feFlood flood-opacity="0" result="BackgroundImageFix"/>
<feGaussianBlur in="BackgroundImageFix" stdDeviation="10"/>
<feComposite in2="SourceAlpha" operator="in" result="effect1_backgroundBlur_25_571"/>
<feBlend mode="normal" in="SourceGraphic" in2="effect1_backgroundBlur_25_571" result="shape"/>
</filter>
</defs>
</svg>

<svg width="363" height="435" viewBox="0 0 363 435" fill="none" xmlns="http://www.w3.org/2000/svg">
<g opacity="0.2">
<g filter="url(#filter0_b_25_571)">
<path d="M247.5 465C110.81 465 0 354.191 0 217.5C0 185.486 6.07822 154.892 17.1436 126.809L65.4089 154.896C58.6625 174.523 55 195.584 55 217.5C55 323.815 141.185 410 247.5 410C310.584 410 366.58 379.656 401.689 332.767L446.036 365.309C400.914 425.817 328.783 465 247.5 465Z" fill="white" fill-opacity="0.7"/>
<path d="M490.764 171.667C493.546 186.52 495 201.84 495 217.5C495 225.448 494.625 233.308 493.893 241.064C345.882 195.552 269.802 213.815 137.5 267.917C251.409 183.369 320.83 146.817 490.764 171.667Z" fill="white" fill-opacity="0.7"/>
<path d="M488.34 274.772C483.232 296.334 475.303 316.805 464.965 335.773C357.761 277.404 310.117 271.91 165 267.917C312.084 232.41 386.947 224.281 488.34 274.772Z" fill="white" fill-opacity="0.7"/>
<path d="M247.5 464.5C111.086 464.5 0.5 353.914 0.5 217.5C0.5 185.756 6.48811 155.411 17.3959 127.534L64.803 155.122C58.1238 174.69 54.5 195.672 54.5 217.5C54.5 324.091 140.909 410.5 247.5 410.5C310.57 410.5 366.574 380.247 401.792 333.462L445.333 365.413C400.283 425.571 328.438 464.5 247.5 464.5ZM293.272 179.244C345.939 162.697 405.603 159.751 490.339 172.11C493.071 186.823 494.5 201.994 494.5 217.5C494.5 225.223 494.146 232.863 493.452 240.405C419.694 217.781 363.755 211.005 309.754 216.638C256.627 222.18 205.41 239.731 140.991 265.952C196.468 224.918 241.513 195.507 293.272 179.244ZM343.806 239.595C393.38 239.437 437.277 249.956 487.762 275.043C482.701 296.253 474.904 316.402 464.765 335.095C411.367 306.049 372.7 290.122 329.303 280.965C286.557 271.945 239.243 269.498 168.777 267.521C240.504 250.289 294.923 239.751 343.806 239.595Z" stroke="white"/>
</g>
<g filter="url(#filter1_b_25_571)">
<path d="M28.6914 101.727C70.2356 23.372 152.635 -30 247.5 -30C355.263 -30 446.94 38.8716 480.917 135C293.554 133.301 226.283 174.817 119.167 263.333C184.235 157.458 235.456 111.516 382.222 80C347.502 45.9774 299.951 25 247.5 25C173.024 25 108.426 67.294 76.4147 129.174L28.6914 101.727Z" fill="white" fill-opacity="0.7"/>
<path d="M247.5 24.5C173.016 24.5 108.388 66.6935 76.2114 128.48L29.3599 101.534C70.8933 23.5696 153 -29.5 247.5 -29.5C354.793 -29.5 446.109 38.9106 480.207 134.494C386.88 133.701 323.338 143.662 269.765 164.871C216.839 185.824 173.681 217.742 121.176 261.027C153.062 209.447 181.784 172.323 220.352 144.186C259.557 115.585 308.978 96.2396 382.327 80.4889L383.236 80.2937L382.572 79.6429C347.763 45.5324 300.087 24.5 247.5 24.5Z" stroke="white"/>
</g>
</g>
<defs>
<filter id="filter0_b_25_571" x="-20" y="106.809" width="535" height="378.192" filterUnits="userSpaceOnUse" color-interpolation-filters="sRGB">
<feFlood flood-opacity="0" result="BackgroundImageFix"/>
<feGaussianBlur in="BackgroundImageFix" stdDeviation="10"/>
<feComposite in2="SourceAlpha" operator="in" result="effect1_backgroundBlur_25_571"/>
<feBlend mode="normal" in="SourceGraphic" in2="effect1_backgroundBlur_25_571" result="shape"/>
</filter>
<filter id="filter1_b_25_571" x="8.69141" y="-50" width="492.226" height="333.333" filterUnits="userSpaceOnUse" color-interpolation-filters="sRGB">
<feFlood flood-opacity="0" result="BackgroundImageFix"/>
<feGaussianBlur in="BackgroundImageFix" stdDeviation="10"/>
<feComposite in2="SourceAlpha" operator="in" result="effect1_backgroundBlur_25_571"/>
<feBlend mode="normal" in="SourceGraphic" in2="effect1_backgroundBlur_25_571" result="shape"/>
</filter>
</defs>
</svg>
